X:1
T:Safe in the Arms of Jesus
T:William Howard Doane
T:Safe in the Arms of Jesus
T:Public Domain
T:Public Domain
C:William Howard Doane
Z:Public Domain
%%score ( 1 2 ) ( 3 4 )
L:1/8
M:4/4
K:G
V:1 treble 
V:2 treble 
V:3 bass 
V:4 bass 
V:1
 [DB]2 [DA]>[DG] D2 [DG]2 | (B3 c) [GB]4 | [Gd]2 [Ge]>[Gd] [GB]2 G2 | [FA]8 | %4
w: 1.~Safe in the arms of|Je- * sus,|on His gen- tle breast,|by|
w: 2.~Safe in the arms of|Je- * sus,|from cor- rod- ing care,|from|
w: 3.~Je- sus, my heart’s dear|re- * fuge,|sus has died for me;|on|
 [DB]2 [DA]>[DG] D2 [DG]2 | (B3 c) [=Fd]4 | (dc)[EB][EA] [DG]2 [DF]2 | [DG]8 | %8
w: His love o’er- shad- ed,|ly * my|shall * rest. Hark! ’tis the|of|
w: the world’s temp- ta- tions,|can- * not|me * there. Free from the|of|
w: the Rock of A- ges,|er * my|shall * be. Here let me|with|
 [FA]2 [GB]>[GB] [FA]2 [FA]2 | [FA]4 [Fd]4 | [E^c]2 [Gc]>[Gc] [GB]2 [GA]2 | (A4 d4) | %12
w: an- gels, borne in a|song to|me. O- ver the fields|of *|
w: sor- row, free from my|doubts and|fears; On- ly a few|more *|
w: pa- tience, wait till the|night is|over; Wait till I see|the *|
 [FA]2 [FA]>[GB] [FA]2 [Fd]2 | [Gd]4 [GB]4 | [FA]2 [E^c]>[Fd] [Ge]2 [Ec]2 | (F2 G2 A4 c2) || %16
w: ry, o- ver the jas-|per sea.|||
w: als, on- ly a few|more tears!|Safe in the arms of|Je- * * *|
w: ing break on the gold-|en shore.|||
"^Refrain" [DB]2 [DA]>[DG] D2 [DG]2 | (B3 c) [GB]4 | [Gd]2 [Ge]>[Gd] [GB]2 G2 | [FA]8 | %20
w: ||||
w: safe on His gen- tle|breast * There|His love o’er- shad- ed,|ly|
w: ||||
 [DB]2 [DA]>[DG] D2 [DG]2 | (B3 c) [=Fd]4 | (dc)[EB][EA] [DG]2 [DF]2 | [DG]8 |] %24
w: ||||
w: my soul shall rest. *||||
w: ||||
V:2
 x8 | G4 x4 | x6 G2 | x8 | x4 D2 x2 | G4 x4 | E2 x6 | x8 | x8 | x8 | x8 | F8 | x8 | x8 | x8 | %15
w: |safe|There||sweet-|soul|voice|||||glo-||||
w: |safe|Safe||sin|harm|blight|||||tri-||||
w: |Je-|Firm||ev-|trust|wait|||||morn-||||
 d6 x4 || x8 | G4 x4 | x6 G2 | x8 | x4 D2 x2 | G4 x4 | E2 x6 | x8 |] %24
w: |||||||||
w: sus,||by|sweet-||||||
w: |||||||||
V:3
 [G,D]2 [G,C]>[G,B,] [G,B,]2 [G,B,]2 | (D3 E) [G,D]4 | [G,B,]2 [G,C]>[G,B,] [G,D]2 [B,,D]2 | %3
 [D,D]8 | [G,D]2 [G,C]>[G,B,] [G,B,]2 [G,B,]2 | [G,D]4 [B,,G,]4 | (G,A,)[C,D][C,C] [D,B,]2 (A,C) | %7
 [G,,B,]8 | [D,D]2 [D,D]>[D,D] [D,D]2 [D,D]2 | [D,D]4 [D,A,]4 | A,2 [A,E]>[A,E] [A,D]2 [A,^C]2 | %11
 (D4 A,4) | [D,D]2 [D,D]>[D,D] [D,D]2 [D,C]2 | [G,B,]4 [G,D]4 | [A,D]2 A,>A, [A,,A,]2 [A,,A,]2 | %15
 (D,2 E,2 F,4 D2) || [G,D]2 [G,C]>[G,B,] [G,B,]2 [G,B,]2 | (D3 E) [G,D]4 | %18
 [G,B,]2 [G,C]>[G,B,] [G,D]2 [B,,D]2 | [D,D]8 | [G,D]2 [G,C]>[G,B,] [G,B,]2 [G,B,]2 | %21
 [G,D]4 [B,,G,]4 | (G,A,)[C,D][C,C] [D,B,]2 (A,C) | [G,,G,B,]8 |] %24
V:4
 x8 | G,4 x4 | x8 | x8 | x8 | x8 | C,2 x3 D,2 x | x8 | x8 | x8 | A,2 x6 | D,8 | x8 | x8 | %14
 x2 A,>A, x4 | A,6 x4 || x8 | G,4 x4 | x8 | x8 | x8 | x8 | C,2 x3 D,2 x | x8 |] %24

